X:24
T:Yorkshire Ned. Ca1758.048
M:6/8
L:1/8
Q:3/8=110
B:Cahusac,T. 24 Country Dances for the Year 1758
Z:vmp.Mike Hicken 2015 www.village-music-project.org.uk
N: On the repeat of this section this should be a dotted crotchet.
K:G
g|g2G G2B|AcA B2G|g2G G2B|AcA G2 :|
|:d|dBd (g/a/b)g|cAc (f/g/a)f|g2G G2B|AcA "*" G2 :|
|: bgd gdB|dBG AFD|bgd gdB|A/B/cA G3 :|
|: ded b2d|cdc a2c|BdB cec|dgf g3 :|
W:
W: The 1st. Cu. set to the 2d. Wo. and
W: not turn .|  the same to the 2d. Man
W: :|  Right hands across half round .|
W: the same back again :|  gallop down
W: and up and cast off :|  and Right
W: and Left :|


